X: 42
T:Slieve Aughty March
R:March
D:Tracin' - O'Hallmurhain and Ourceau
M:4/4
Z:Alf 
Z: Key is F on CD
L:1/8
K:G
DG|B2A>B AGEG|D2G>F GABG|E2c2 BAGB|A2d>^c d2DG|
B2A>B AGEG|D2G>F GABG|E2c2 BAGF|G2G>F G2:|
Bc|d2B>d gdBd|g2g>f gdBd|c2a>b agfe|d2d2 d2ef|
g2g>f gdBd|c2a>b agfe|d2d>e fdfa|g2g>f g2:|
